icons/svgs/ticket-solid.svg

<svg width="24" height="24" viewBox="0 0 24 24" fill="none" xmlns="http://www.w3.org/2000/svg">
<path d="M3.75 4.5H21.25C22.6172 4.5 23.75 5.63281 23.75 7V9.5C23.75 9.85156 23.4375 10.125 23.125 10.2422C22.3828 10.5156 21.875 11.1797 21.875 12C21.875 12.8203 22.3828 13.5234 23.125 13.7969C23.4375 13.9141 23.75 14.1875 23.75 14.5V17C23.75 18.4062 22.6172 19.5 21.25 19.5H3.75C2.34375 19.5 1.25 18.4062 1.25 17V14.5C1.25 14.1875 1.52344 13.9141 1.83594 13.7969C2.57812 13.5234 3.125 12.8203 3.125 12C3.125 11.1797 2.57812 10.5156 1.83594 10.2422C1.52344 10.125 1.25 9.85156 1.25 9.5V7C1.25 5.63281 2.34375 4.5 3.75 4.5ZM6.25 8.875C6.25 8.5625 6.52344 8.25 6.875 8.25H18.125C18.4375 8.25 18.75 8.5625 18.75 8.875V15.125C18.75 15.4766 18.4375 15.75 18.125 15.75H6.875C6.52344 15.75 6.25 15.4766 6.25 15.125V8.875ZM5 8.25V15.75C5 16.4531 5.54688 17 6.25 17H18.75C19.4141 17 20 16.4531 20 15.75V8.25C20 7.58594 19.4141 7 18.75 7H6.25C5.54688 7 5 7.58594 5 8.25Z" fill="black"/>
</svg>

<svg xmlns="http://www.w3.org/2000/svg" width="24" height="24" fill="currentColor" class="icon-ticket-solid" viewBox="0 0 24 24">
  <mask id="a" width="23" height="16" x="1" y="4" maskUnits="userSpaceOnUse" style="mask-type:alpha">
    <path d="M3.75 4.5h17.5c1.367 0 2.5 1.133 2.5 2.5v2.5c0 .352-.312.625-.625.742-.742.274-1.25.938-1.25 1.758s.508 1.523 1.25 1.797c.313.117.625.39.625.703V17c0 1.406-1.133 2.5-2.5 2.5H3.75a2.47 2.47 0 0 1-2.5-2.5v-2.5c0-.312.273-.586.586-.703.742-.274 1.289-.977 1.289-1.797s-.547-1.484-1.29-1.758c-.312-.117-.585-.39-.585-.742V7c0-1.367 1.094-2.5 2.5-2.5m2.5 4.375c0-.312.273-.625.625-.625h11.25c.313 0 .625.313.625.625v6.25a.64.64 0 0 1-.625.625H6.875a.617.617 0 0 1-.625-.625zM5 8.25v7.5c0 .703.547 1.25 1.25 1.25h12.5c.664 0 1.25-.547 1.25-1.25v-7.5C20 7.586 19.414 7 18.75 7H6.25C5.547 7 5 7.586 5 8.25"/>
  </mask>
  <g mask="url(#a)">
    <path d="M0 0h24v24H0z"/>
  </g>
</svg>
